X:583
T:Levitation
T:Dave Brown's Compliments to Levi Broadbridge
C:Dave Brown, 2011
N:For the dance by Simone Verheyen
N:See Dave Brown's tune catalogue: https://www.dlbmusic.net/
L:1/8
M:2/2
R:Reel
S:Colin Hume's website,  colinhume.com  - chords can also be printed below the stave.
Q:1/2=120
K:A
P:A
|: "A"A2(cA) eAfA | "A"A2(cA) "G"=GBcB | "A"A2(cA) eAfA | "G"=g(fef) e(dcB) |
"A"A2(cA) eAfA | "A"A2(cA) c(def) | "G"=g(fef) g(fed) |1 "A"c2A2 A2(cB) :|2 "A"c2(cd) "A7"e2=g2 |
K:D
P:B
"D"Lf2 Lf4 Le2- | "F#m"e2(fe) "G"fedB | "A7"Le2 Le4 Ld2- | "A7"d2(cd) B(ABc) |
"Bm"d2(fd) gdfd | "F#m"c2(ec) fcec | "Bm"B2(dB) eBdB | "A7"c(ABc) d(efg) |
"D"Lf2 Lf4 Le2- | "F#m"e2(fe) "G"fedB | "A7"Le2 Le4 Ld2- | "A7"d2(cB) A(GFE) |
"D"D2(AF) DEFG | "F#m"A2(cA) cdef | "G"g(fef) g(fef) | "E7"gfef e(dcB) |]

